!!!COM: des Prez, Josquin
!!!CDT: ~1450-1521/08/27
!!!OTL@@FRE: Incessament livr&eacute;
!!!AGN: Chanson
!!!SCT: NJE 29.8
!!!SCA: New Josquin Edition 29.8
!!!voices: 5
**kern	**text	**kern	**text	**kern	**text	**kern	**text	**kern	**text
*staff5	*	*staff4	*	*staff3	*	*staff2	*	*staff1	*
*Ivox	*	*Ivox	*	*Ivox	*	*Ivox	*	*Ivox	*
*I"Bassus	*	*I"Quintus	*	*I"Contratenor	*	*I"Tenor	*	*I"Superius	*
*I'B	*	*I'Q	*	*I'Ct	*	*I'T	*	*I'S	*
*clefF4	*	*clefF4	*	*clefGv2	*	*clefGv2	*	*clefG2	*
*k[]	*	*k[]	*	*k[]	*	*k[]	*	*k[]	*
*M2/1	*	*M2/1	*	*M2/1	*	*M2/1	*	*M2/1	*
*met(C|)	*	*met(C|)	*	*met(C|)	*	*met(C|)	*	*met(C|)	*
=1-	=1-	=1-	=1-	=1-	=1-	=1-	=1-	=1-	=1-
!	!	!	!	!	!	!LO:TX:Z=6:t=Canon at the lower 5th (T-->Q, 3 breves)	!	!	!
1E	In-	0r	.	0r	.	1r	.	0r	.
1E	-ces-	.	.	.	.	1e	In-	.	.
=2	=2	=2	=2	=2	=2	=2	=2	=2	=2
1E	-sa-	0r	.	0r	.	1e	-ces-	1r	.
[1C	-ment,	.	.	.	.	1e	-sa-	1e	In-
=3	=3	=3	=3	=3	=3	=3	=3	=3	=3
2C/]	.	0r	.	1r	.	1.c	-ment,	1e	-ces-
2AA/	.	.	.	.	.	.	.	.	.
1AA	.	.	.	1A	In-	.	.	1e	-sa-
.	.	.	.	.	.	2A/	.	.	.
=4	=4	=4	=4	=4	=4	=4	=4	=4	=4
0r	.	1r	.	1A	-ces-	0A	.	1.c	-ment,
.	.	1A	In-	1A	-sa-	.	.	.	.
.	.	.	.	.	.	.	.	2A/	.
=5	=5	=5	=5	=5	=5	=5	=5	=5	=5
1r	.	1A	-ces-	1.F	-ment	0r	.	0A	.
1A	in-	1A	-sa-	.	.	.	.	.	.
.	.	.	.	2D/	.	.	.	.	.
=6	=6	=6	=6	=6	=6	=6	=6	=6	=6
1A	-ces-	1.F	-ment,	0D	.	0r	.	1r	.
1A	-sa-	.	.	.	.	.	.	1a	in-
.	.	2D\	.	.	.	.	.	.	.
=7	=7	=7	=7	=7	=7	=7	=7	=7	=7
1.F	-ment,	0D	.	0r	.	1r	.	1a	-ces-
.	.	.	.	.	.	1A	li-	1a	-sa-
2D\	.	.	.	.	.	.	.	.	.
=8	=8	=8	=8	=8	=8	=8	=8	=8	=8
0D	.	0r	.	1r	.	1d	-vr&eacute;	1.f	-ment,
.	.	.	.	1D	li-	1d	suis	.	.
.	.	.	.	.	.	.	.	2d/	.
=9	=9	=9	=9	=9	=9	=9	=9	=9	=9
0r	.	0r	.	1G	-vr&eacute;	1B	a	0d	.
.	.	.	.	1G	suis	1G	mar-	.	.
=10	=10	=10	=10	=10	=10	=10	=10	=10	=10
1D	li-	1r	.	2F/	a	0A	-ti-	1r	.
.	.	.	.	2D/	mar-	.	.	.	.
2D\	vr&eacute;	1D	li-	[1d	-ti-	.	.	1f	li-
2D\	suis	.	.	.	.	.	.	.	.
=11	=11	=11	=11	=11	=11	=11	=11	=11	=11
1GG	a	1G	-vr&eacute;	2d\]	.	0B	-re,	1g	vr&eacute;
.	.	.	.	2B\	.	.	.	.	.
1GG	mar-	1G	suis	2.B\	.	.	.	1d	suis
.	.	.	.	4G/	.	.	.	.	.
=12	=12	=12	=12	=12	=12	=12	=12	=12	=12
1C	-ti-	1E	a	2G/	.	0r	.	1e	a
.	.	.	.	2.c\	.	.	.	.	.
1AA	.	1C	mar-	.	.	.	.	1e	mar-
.	.	.	.	4B\	.	.	.	.	.
.	.	.	.	[2A/	.	.	.	.	.
=13	=13	=13	=13	=13	=13	=13	=13	=13	=13
0BB	.	0D	-ti-	2A/]	.	0r	.	1.d	-ti-
.	.	.	.	4G#i/	.	.	.	.	.
.	.	.	.	4F#i/	.	.	.	.	.
.	.	.	.	1G#i	.	.	.	.	.
.	.	.	.	.	.	.	.	4c/	.
.	.	.	.	.	.	.	.	4B/	.
=14	=14	=14	=14	=14	=14	=14	=14	=14	=14
[0AA	-re,	0E	-re,	[0A	-re,	1r	.	0c	-re,
.	.	.	.	.	.	1e	Tris-	.	.
=15	=15	=15	=15	=15	=15	=15	=15	=15	=15
0AA]	.	0r	.	0A]	.	1e	te et	1r	.
.	.	.	.	.	.	1e	pen-	1e	Tris-
=16	=16	=16	=16	=16	=16	=16	=16	=16	=16
0r	.	0r	.	1r	.	1.c	-sif,	1e	te et
.	.	.	.	1A	Tris-	.	.	1e	pen-
.	.	.	.	.	.	2A/	.	.	.
=17	=17	=17	=17	=17	=17	=17	=17	=17	=17
0r	.	1r	.	1A	te et	0A	.	1.c	-sif,
.	.	1A	Tris-	1A	pen-	.	.	.	.
.	.	.	.	.	.	.	.	2A/	.
=18	=18	=18	=18	=18	=18	=18	=18	=18	=18
1r	.	1A	te et	1.F	-sif,	0r	.	0A	.
1A	Tris-	1A	pen-	.	.	.	.	.	.
.	.	.	.	2D/	.	.	.	.	.
=19	=19	=19	=19	=19	=19	=19	=19	=19	=19
1A	-te et	1.F	-sif,	0D	.	0r	.	1r	.
1A	pen-	.	.	.	.	.	.	1a	tris-
.	.	2D\	.	.	.	.	.	.	.
=20	=20	=20	=20	=20	=20	=20	=20	=20	=20
1.F	-sif	0D	.	0r	.	1r	.	1a	-te pen-
.	.	.	.	.	.	1A	tous-	1a	-sif
2D\	.	.	.	.	.	.	.	.	.
=21	=21	=21	=21	=21	=21	=21	=21	=21	=21
0D	.	0r	.	1r	.	1d	-jours	1.f	.
.	.	.	.	1D	tous-	1d	mon	.	.
.	.	.	.	.	.	.	.	2d/	.
=22	=22	=22	=22	=22	=22	=22	=22	=22	=22
0r	.	0r	.	1G	-jours	1B	mal	0d	.
.	.	.	.	1G	mon	1G	em-	.	.
=23	=23	=23	=23	=23	=23	=23	=23	=23	=23
1D	tous-	1r	.	2F/	mal	0A	-pi-	1r	.
.	.	.	.	2D/	em-	.	.	.	.
2D\	-jours	1D	tous-	[1d	-pi-	.	.	1f	tous-
2D\	mon	.	.	.	.	.	.	.	.
=24	=24	=24	=24	=24	=24	=24	=24	=24	=24
1GG	mal	1G	-jours	2d\]	.	0B	-re,	1g	-jours
.	.	.	.	4c\	.	.	.	.	.
.	.	.	.	4B\	.	.	.	.	.
1GG	em-	1G	mon	2.B\	.	.	.	1d	mon
.	.	.	.	4G/	.	.	.	.	.
=25	=25	=25	=25	=25	=25	=25	=25	=25	=25
1C	-pi-	1E	mal	2G/	.	0r	.	1e	mal
.	.	.	.	2.c\	.	.	.	.	.
1AA	.	1C	em-	.	.	.	.	1e	em-
.	.	.	.	4B\	.	.	.	.	.
.	.	.	.	[2A/	.	.	.	.	.
=26	=26	=26	=26	=26	=26	=26	=26	=26	=26
0BB	.	0D	-pi-	2A/]	.	0r	.	1.d	-pi-
.	.	.	.	4G#i/	.	.	.	.	.
.	.	.	.	4F#i/	.	.	.	.	.
.	.	.	.	1G#i	.	.	.	.	.
.	.	.	.	.	.	.	.	4c/	.
.	.	.	.	.	.	.	.	4B/	.
=27	=27	=27	=27	=27	=27	=27	=27	=27	=27
0AA	-re,	0E	-re,	1A	-re,	0e	Ain-	1c	-re,
.	.	.	.	2r	.	.	.	1cc	Ain-
.	.	.	.	2E/	Ain-	.	.	.	.
=28	=28	=28	=28	=28	=28	=28	=28	=28	=28
0r	.	0r	.	1G	-si	1d	-si	1b	-si
.	.	.	.	1A	do-	1c	do-	[1a	do-
=29	=29	=29	=29	=29	=29	=29	=29	=29	=29
0r	.	0r	.	0E	-lent,	0B	-lent	2a/]	.
.	.	.	.	.	.	.	.	4g#i/	.
.	.	.	.	.	.	.	.	4f#i/	.
.	.	.	.	.	.	.	.	1g#i	.
=30	=30	=30	=30	=30	=30	=30	=30	=30	=30
1r	.	0A	Ain-	1r	.	0r	.	1a	-lent,
1AA	Ain-	.	.	1e	ain-	.	.	1cc	ain-
=31	=31	=31	=31	=31	=31	=31	=31	=31	=31
1E	-si	1G	-si	1e	-si	0r	.	1b	-si
1F	do-	1F	do-	1A	do-	.	.	[1a	do-
=32	=32	=32	=32	=32	=32	=32	=32	=32	=32
2.C/	-lent	0E	-lent	[0e	-lent	1r	.	2a/]	.
.	.	.	.	.	.	.	.	4g#i/	.
4D\	.	.	.	.	.	.	.	4f#i/	.
1E	.	.	.	.	.	1B	me	1g#i	.
=33	=33	=33	=33	=33	=33	=33	=33	=33	=33
2r	.	0r	.	0e]	.	1c	con-	2a/	-lent
2AA/	me	.	.	.	.	.	.	2cc\	me
2AA/	con-	.	.	.	.	2A/	-duit	2cc\	con-
2AA/	-duit	.	.	.	.	[2e\	des-	2cc\	-duit
=34	=34	=34	=34	=34	=34	=34	=34	=34	=34
1E	des-	0r	.	0r	.	4e\]	.	2b\	des-
.	.	.	.	.	.	4d\	.	.	.
.	.	.	.	.	.	4c\	.	1cc	.
.	.	.	.	.	.	4B\	.	.	.
1AA	-plai-	.	.	.	.	1c	-plai-	.	.
.	.	.	.	.	.	.	.	4b\	-plai-
.	.	.	.	.	.	.	.	4a/	.
=35	=35	=35	=35	=35	=35	=35	=35	=35	=35
0E	-sir.	1r	.	1r	.	0B	-sir.	0g	-sir.
.	.	1E	me	2r	.	.	.	.	.
.	.	.	.	2e\	me	.	.	.	.
=36	=36	=36	=36	=36	=36	=36	=36	=36	=36
0r	.	1F	con-	2c\	con-	0r	.	0r	.
.	.	.	.	2.d\	-duit	.	.	.	.
.	.	2D\	-duit	.	.	.	.	.	.
.	.	.	.	4e\	.	.	.	.	.
.	.	[2A\	des-	[2f\	des-	.	.	.	.
=37	=37	=37	=37	=37	=37	=37	=37	=37	=37
0r	.	4A\]	.	4f\]	.	0r	.	0r	.
.	.	4G\	.	4e\	.	.	.	.	.
.	.	4F\	.	1e	.	.	.	.	.
.	.	4E\	.	.	.	.	.	.	.
.	.	1F	-plai-	.	.	.	.	.	.
.	.	.	.	2d\	-plai-	.	.	.	.
=38	=38	=38	=38	=38	=38	=38	=38	=38	=38
1r	.	0E	-sir.	0e	-sir.	0e	Cel-	1r	.
1C	Cel-	.	.	.	.	.	.	1cc	Cel-
=39	=39	=39	=39	=39	=39	=39	=39	=39	=39
1G	-le	0r	.	1r	.	1d	-le	1b	-le
1A	qui	.	.	1e	Cel-	1c	qui	[1a	qui
=40	=40	=40	=40	=40	=40	=40	=40	=40	=40
0E	peult,	0r	.	1e	-le	0B	peult,	2a/]	.
.	.	.	.	.	.	.	.	4g#i/	.
.	.	.	.	.	.	.	.	4f#i/	.
.	.	.	.	1e	qui	.	.	1g#i	.
=41	=41	=41	=41	=41	=41	=41	=41	=41	=41
1r	.	0A	Cel-	1c	peult,	0r	.	1a	peult,
1AA	cel-	.	.	2r	.	.	.	1cc	cel-
.	.	.	.	[2e\	cel-	.	.	.	.
=42	=42	=42	=42	=42	=42	=42	=42	=42	=42
1E	-le	1G	-le	2e\]	.	0r	.	1b	-le
.	.	.	.	2e\	-le	.	.	.	.
1F	qui	1F	qui	1A	qui	.	.	[1a	qui
=43	=43	=43	=43	=43	=43	=43	=43	=43	=43
2.C/	peult	0E	peult,	[0e	peult	1r	.	2a/]	.
.	.	.	.	.	.	.	.	4g#i/	.
4D\	.	.	.	.	.	.	.	4f#i/	.
1E	.	.	.	.	.	1B	ne	1g#i	.
=44	=44	=44	=44	=44	=44	=44	=44	=44	=44
2r	.	0r	.	0e]	.	1c	me	2a/	peult
2AA/	ne	.	.	.	.	.	.	2cc\	ne
2AA/	me	.	.	.	.	2A/	veult	2cc\	me
2AA/	veult	.	.	.	.	[2e\	se-	2cc\	veult
=45	=45	=45	=45	=45	=45	=45	=45	=45	=45
1E	se-	0r	.	0r	.	4e\]	.	2b\	se-
.	.	.	.	.	.	4d\	.	.	.
.	.	.	.	.	.	4c\	.	1cc	.
.	.	.	.	.	.	4B\	.	.	.
1AA	-cou-	.	.	.	.	1c	-cou-	.	.
.	.	.	.	.	.	.	.	4b\	-cou-
.	.	.	.	.	.	.	.	4a/	.
=46	=46	=46	=46	=46	=46	=46	=46	=46	=46
0E	-rir,	1r	.	1r	.	0B	-rir,	0g	-rir,
.	.	1E	ne	2r	.	.	.	.	.
.	.	.	.	2e\	ne	.	.	.	.
=47	=47	=47	=47	=47	=47	=47	=47	=47	=47
0r	.	1F	me	2c\	me	0r	.	0r	.
.	.	.	.	2.d\	veult	.	.	.	.
.	.	2D\	veult	.	.	.	.	.	.
.	.	.	.	4e\	.	.	.	.	.
.	.	[2A\	se-	[2f\	se-	.	.	.	.
=48	=48	=48	=48	=48	=48	=48	=48	=48	=48
0r	.	4A\]	.	2f\]	.	0r	.	0r	.
.	.	4G\	.	.	.	.	.	.	.
.	.	4F\	.	1e	.	.	.	.	.
.	.	4E\	.	.	.	.	.	.	.
.	.	1F	-cou-	.	.	.	.	.	.
.	.	.	.	2d\	-cou-	.	.	.	.
=49	=49	=49	=49	=49	=49	=49	=49	=49	=49
1r	.	0E	-rir,	0e	-rir,	1r	.	1r	.
1E	Mon	.	.	.	.	1e	Mon	1g	Mon
=50	=50	=50	=50	=50	=50	=50	=50	=50	=50
1F	mal-	0r	.	1r	.	1c	mal-	1a	mal-
1F	-heur	.	.	1A	Mon	1d	-heur	[1a	-heur
=51	=51	=51	=51	=51	=51	=51	=51	=51	=51
0E	est,	0r	.	1B	mal-	0e	est	2a/]	.
.	.	.	.	.	.	.	.	4g#i/	.
.	.	.	.	.	.	.	.	4f#i/	.
.	.	.	.	1B	-heur	.	.	1g#i	.
=52	=52	=52	=52	=52	=52	=52	=52	=52	=52
1r	.	1r	.	0A	est,	1r	.	0a	est
1AA	mon	1A	Mon	.	.	1c	de	.	.
=53	=53	=53	=53	=53	=53	=53	=53	=53	=53
1BB	mal-	1F	mal-	1r	.	1d	tous	0r	.
1BB	-heur	1G	-heur	1D	mon	1d	aul-	.	.
=54	=54	=54	=54	=54	=54	=54	=54	=54	=54
0AA	est	0A	est	1E	mal-	1c	-tres	0r	.
.	.	.	.	1E	-heur	1c	le	.	.
=55	=55	=55	=55	=55	=55	=55	=55	=55	=55
1r	.	1r	.	1D	est	0f	pi-	1r	.
1D	de	1F	de	1d	de	.	.	1a	de
=56	=56	=56	=56	=56	=56	=56	=56	=56	=56
1E	tous	1G	tous	1B	tous	0e	-re,	1g	tous
1C	aul-	1G	aul-	1c	aul-	.	.	1e	aul-
=57	=57	=57	=57	=57	=57	=57	=57	=57	=57
1D	-tres	1F	-tres	1A	-tres	0r	.	1f	-tres
1D	le	1F	le	1A	le	.	.	1f	le
=58	=58	=58	=58	=58	=58	=58	=58	=58	=58
0GG	pi-	0B-i	pi-	2G/	pi-	0r	.	2.g/	pi-
.	.	.	.	2D/	.	.	.	.	.
.	.	.	.	.	.	.	.	4f/	.
.	.	.	.	1G	.	.	.	1d	-re,
=59	=59	=59	=59	=59	=59	=59	=59	=59	=59
0D	-re,	0A	-re,	0F	-re,	1r	.	1r	.
.	.	.	.	.	.	1d	de	1f	de
=60	=60	=60	=60	=60	=60	=60	=60	=60	=60
1r	.	0r	.	1r	.	1e	tous	1g	tous
1C	de	.	.	1c	de	1e	aul-	1g	aul-
=61	=61	=61	=61	=61	=61	=61	=61	=61	=61
1F	tous	0r	.	1.c	tous	1A	-tres	2a/	-tres
.	.	.	.	.	.	.	.	2.cc\	le
1F	aul-	.	.	.	.	1A	le	.	.
.	.	.	.	.	.	.	.	4b\	.
.	.	.	.	2d\	aul-	.	.	2a/	.
=62	=62	=62	=62	=62	=62	=62	=62	=62	=62
2E\	-tres	1r	.	2e\	-tres	2c\	pi-	2g/	pi-
2D\	le	.	.	2f\	le	2d\	.	2f/	.
1E	pi-	1G	de	1e	pi-	1B	.	3.g/V	.
.	.	.	.	.	.	.	.	6a/	.
.	.	.	.	.	.	.	.	3b\Z	.
=63	=63	=63	=63	=63	=63	=63	=63	=63	=63
2AA/	-re,	1A	tous	2c\	-re,	[0A	-re,	2cc\	-re,
2D\	de	.	.	2A/	de	.	.	2f/	de
2C/	tous	1A	aul-	2c\	tous	.	.	2e/	tous
[2F\	aul-	.	.	2c\	aul-	.	.	[2a/	aul-
=64	=64	=64	=64	=64	=64	=64	=64	=64	=64
4F\]	.	1D	-tres	1.F	-tres	0A]	.	4a/]	.
4E\	.	.	.	.	.	.	.	4g/	.
1D	-tres	.	.	.	.	.	.	1f	-tres
.	.	1D	le	.	.	.	.	.	.
4C/	le	.	.	2G/	le	.	.	4e/	le
4BB/	.	.	.	.	.	.	.	4d/	.
=65	=65	=65	=65	=65	=65	=65	=65	=65	=65
2AA/	pi-	2F\	pi-	2A/	pi-	0r	.	2c/	pi-
2GG/	.	2G\	.	2B-i\	.	.	.	1d	.
1AA	.	1E	.	1A	.	.	.	.	.
.	.	.	.	.	.	.	.	2c#i/	.
=66	=66	=66	=66	=66	=66	=66	=66	=66	=66
[0Dl	-re.	[0Dl	-re.	1F	-re,	1A	le	[0dl	-re.
.	.	.	.	1D	le	1A	pi-	.	.
=67	=67	=67	=67	=67	=67	=67	=67	=67	=67
0D_	.	0D_	.	1.F	pi-	[0dl	-re.	0d_	.
.	.	.	.	2D/	.	.	.	.	.
=68	=68	=68	=68	=68	=68	=68	=68	=68	=68
0D]	.	0D]	.	0Dl	-re.	0d]	.	0d]	.
==	==	==	==	==	==	==	==	==	==
*-	*-	*-	*-	*-	*-	*-	*-	*-	*-
!!!RDF**kern: l=long note in original notation
!!!RDF**kern: i=editorial accidental
!!!ENC: Will Watson 13/11/2011
!!!END: 2011/11/13/
!!!EED: Jesse Rodin
!!!EEV: 2011/12/06/
!!attribution-level@Jos: 2 (provisionally attributable [parentheses checkmark])
!!!ONB: Translated from MusicXML and edited on 2011/12/06/ by Craig Sapp
!!muse2ps: C^@{COM}\n@{SCT}^i2I150v75,75,75,75,105c120z18l2780t100
